common/src/main/resources/icons/plugins/kubernetes/kustomize.svg

<!--
  - The MIT License (MIT)
  -
  - Copyright (c) 2015-2024 Elior "Mallowigi" Boukhobza
  -
  - Permission is hereby granted, free of charge, to any person obtaining a copy
  - of this software and associated documentation files (the "Software"), to deal
  - in the Software without restriction, including without limitation the rights
  - to use, copy, modify, merge, publish, distribute, sublicense, and/or sell
  - copies of the Software, and to permit persons to whom the Software is
  - furnished to do so, subject to the following conditions:
  -
  - The above copyright notice and this permission notice shall be included in all
  - copies or substantial portions of the Software.
  -
  - THE SOFTWARE IS PROVIDED "AS IS", WITHOUT WARRANTY OF ANY KIND, EXPRESS OR
  - IMPLIED, INCLUDING BUT NOT LIMITED TO THE WARRANTIES OF MERCHANTABILITY,
  - FITNESS FOR A PARTICULAR PURPOSE AND NONINFRINGEMENT. IN NO EVENT SHALL THE
  - AUTHORS OR COPYRIGHT HOLDERS BE LIABLE FOR ANY CLAIM, DAMAGES OR OTHER
  - LIABILITY, WHETHER IN AN ACTION OF CONTRACT, TORT OR OTHERWISE, ARISING FROM,
  - OUT OF OR IN CONNECTION WITH THE SOFTWARE OR THE USE OR OTHER DEALINGS IN THE
  - SOFTWARE.
  -->

<svg data-big="true" width="16px" height="16px" viewBox="7 5 16 16" fill="none" xmlns="http://www.w3.org/2000/svg">
  <path fill-rule="evenodd" clip-rule="evenodd"
        d="M19.759 7H10.8159C10.3653 7 10 7.36534 10 7.81589V18.1841C10 18.6351 10.3653 19 10.8159 19H19.759C20.2096 19 20.5749 18.6351 20.5749 18.1841V7.81589C20.5749 7.36534 20.2096 7 19.759 7V7ZM12.8738 16.0655V9.59273H13.735V12.82L17.0167 9.59273H18.1318L15.403 12.2036L18.2405 16.0655H17.1527L14.8138 12.7929L13.735 13.7991V16.0655H12.8738V16.0655Z"
        fill="#64B5F6"/>
</svg>

<svg xmlns="http://www.w3.org/2000/svg" width="16" height="16" fill="none" data-big="true" viewBox="7 5 16 16"><path fill="#64B5F6" fill-rule="evenodd" d="M19.759 7h-8.943a.816.816 0 0 0-.816.816v10.368c0 .451.365.816.816.816h8.943c.45 0 .816-.365.816-.816V7.816A.816.816 0 0 0 19.759 7m-6.885 9.066V9.593h.861v3.227l3.282-3.227h1.115l-2.729 2.61 2.838 3.863h-1.088l-2.34-3.273-1.078 1.006v2.267z" clip-rule="evenodd"/></svg>
